**kern	**kern	**kern	**kern
*staff3	*staff4	*staff1	*staff2
*clefF4	*clefF4	*clefG2	*clefG2
*k[f#c#]	*k[f#c#]	*k[f#c#]	*k[f#c#]
*M2/4	*M2/4	*M2/4	*M2/4
*D:	*D:	*D:	*D:
=-	=-	=-	=-
*clefF4	*	*	*
(16FLL	8D	(16fLL 16ff	2r
16G)	.	16g) 16gg	.
16A'	8r	16a' 16aa'	.
16B-'JJ	.	16b-'JJ 16bb-'	.
16A'LL	8C	16a'LL 16aa'	.
16G'	.	16g' 16gg'	.
16F'	8r	16f' 16ff'	.
16E'JJ	.	16e'JJ 16ee'	.
=225	=225	=225	=225
(16DLL	8BB-	(16dLL 16dd	2r
16E)	.	16e) 16ee	.
16F'	8r	16f' 16ff'	.
16G'JJ	.	16g'JJ 16gg'	.
16F'LL	8AA	16f'LL 16ff'	.
16E'	.	16e' 16ee'	.
16D'	8r	16d' 16dd'	.
16C'JJ	.	16c'JJ 16cc'	.
=226	=226	=226	=226
(16BB-LL	8GG	(16B-LL 16b-	2r
16C)	.	16c) 16cc	.
16BB-'	8r	16B-' 16b-'	.
16AA'JJ	.	16A'JJ 16a'	.
16GG'LL	8EE	16G'LL 16g'	.
16AA'	.	16A' 16a'	.
16BB-'	8r	16B-' 16b-'	.
16C'JJ	.	16c'JJ 16cc'	.
=227	=227	=227	=227
(16AALL	8FF	(16ALL 16a	2r
16BB-)	.	16B-) 16b-	.
16AA'	8r	16A' 16a'	.
16GG'JJ	.	16G'JJ 16g'	.
16FF'LL	4r	16F'LL 16f'	.
16GG'	.	16G' 16g'	.
16FF'	.	16F' 16f'	.
16EE'JJ	.	16E'JJ 16e'	.
=228	=228	=228	=228
16DD'LL	8DD	16D'LL 16d'	2r
16EE'	.	16E' 16e'	.
16FF'	8r	16F' 16f'	.
16GG'JJ	.	16G'JJ 16g'	.
16AA'LL	8FF	16A'LL 16a'	.
16BB-'	.	16B-' 16b-'	.
16BB'	8r	16B' 16b'	.
16C'JJ	.	16c'JJ 16cc'	.
=229	=229	=229	=229
16C#LL	8AA	16c#LL 16cc#	2r
16D	.	16d 16dd	.
16D#	8r	16d# 16dd#	.
16EJJ	.	16eJJ 16ee	.
16FLL	4r	16fLL 16ff	.
16F#	.	16f# 16ff#	.
16G	.	16g 16gg	.
16G#JJ	.	16g#JJ 16gg#	.
=230	=230	=230	=230
16ALL	8D	16aLL 16aa	2r
16B-	.	16b- 16bb-	.
16B	8r	16b 16bb	.
16cJJ	.	16ccJJ 16ccc	.
16c#LL	8F	16cc#LL 16ccc#	.
16d	.	16dd 16ddd	.
16e	8r	16ee 16eee	.
16fJJ	.	16ffJJ 16fff	.
=231	=231	=231	=231
8e'L	8A	8ee'L 8eee'	2r
8c#'J	8r	8cc#'J 8ccc#'	.
8A'	4r	8a' 8aa'	.
8r	.	8r	.
=232:|!|:	=232:|!|:	=232:|!|:	=232:|!|:
*-	*-	*-	*-
